!!!COA:	Josquin des Prez
!!!CDT:	~1450-1521/08/27
!!!OTL:	Verbum bonum et suave
!!!AGN:	Motet
!!!SCT:	NJE 25.11
!!!SCA:	New Josquin Edition 25.11
!!!voices:	5
**kern	**kern	**kern	**kern	**kern
*staff5	*staff4	*staff3	*staff2	*staff1
*Ivox	*Ivox	*Ivox	*Ivox	*Ivox
*I"Bassus	*I"Tenor	*I"Altus	*I"Secunda vox	*I"Superius
*I'B	*I'T	*I'A	*I'Q	*I'S
*clefF4	*clefGv2	*clefGv2	*clefGv2	*clefG2
*k[]	*k[]	*k[]	*k[]	*k[]
*M2/1	*M2/1	*M2/1	*M2/1	*M2/1
*met(C|)	*met(C|)	*met(C|)	*met(C|)	*met(C|)
=1-	=1-	=1-	=1-	=1-
0r	0r	0r	1d	1d
.	.	.	1e	1g
=2	=2	=2	=2	=2
0r	0r	0r	1f	1a
.	.	.	2g\	1g
.	.	.	2c\	.
=3	=3	=3	=3	=3
0r	0r	0r	2e\	2r
.	.	.	4c\	1cc
.	.	.	4d\	.
.	.	.	4e\	.
.	.	.	4f\	.
.	.	.	[2g\	2b\
=4	=4	=4	=4	=4
0r	1D	1D	2g\]	1a
.	.	.	2f\	.
.	1E	1G	1g	1g
=5	=5	=5	=5	=5
1D	1F	1A	0r	0r
2.E\	2G/	1G	.	.
.	2C/	.	.	.
4C/	.	.	.	.
=6	=6	=6	=6	=6
4C/	2E/	2r	0r	0r
4D\	.	.	.	.
4E\	4C/	1c	.	.
4F\	4D/	.	.	.
2G\	4E/	.	.	.
.	4F/	.	.	.
2GG/	[2G/	2B\	.	.
=7	=7	=7	=7	=7
1D	2G/]	1A	0r	0r
.	2F/	.	.	.
[1GG	2G/	1G	.	.
.	2d\	.	.	.
=8	=8	=8	=8	=8
1GG]	2e\	1r	0r	0r
.	2d\	.	.	.
1r	4c\	1A	.	.
.	4d\	.	.	.
.	4e\	.	.	.
.	4c\	.	.	.
=9	=9	=9	=9	=9
1r	2d\	1B	0r	0r
.	4D/	.	.	.
.	4E/	.	.	.
1D	4F/	1A	.	.
.	4G/	.	.	.
.	4A/	.	.	.
.	4F/	.	.	.
=10	=10	=10	=10	=10
1E	2G/	2G/	0r	0r
.	2c\	2E/	.	.
1D	4d\	1F	.	.
.	4e\	.	.	.
.	4f\	.	.	.
.	4d\	.	.	.
=11	=11	=11	=11	=11
2C/	2e\	1E	1r	0r
2AA/	2c\	.	.	.
1BB-	2d\	1D	1d	.
.	[2G/	.	.	.
=12	=12	=12	=12	=12
1AA	2G/]	0r	2e\	1a
.	2F/	.	2c\	.
1GG	2.G/	.	1g	1b
.	4F/	.	.	.
=13	=13	=13	=13	=13
0r	2D/	0r	2f\	1a
.	2F/	.	2d\	.
.	1C	.	4e\	2g/
.	.	.	4d\	.
.	.	.	4c\	2e/
.	.	.	4B\	.
=14	=14	=14	=14	=14
0r	1D	0r	2A/	1f
.	.	.	1d	.
.	1r	.	.	1e
.	.	.	2c\	.
=15	=15	=15	=15	=15
0r	0r	1r	2d\	2d/
.	.	.	2G/	2g/
.	.	2G/	1B	2g/
.	.	2G/	.	4d/
.	.	.	.	4e/
=16	=16	=16	=16	=16
0r	0r	1D	1A	4f/
.	.	.	.	4g/
.	.	.	.	4a/
.	.	.	.	4f/
.	.	2G/	2G/	2g/
.	.	2F/	2d\	2a/
=17	=17	=17	=17	=17
0r	2G/	1G	1d	2b\
.	2G/	.	.	1g
.	1D	1A	1d	.
.	.	.	.	2f/
=18	=18	=18	=18	=18
1r	2G/	2G/	2B\	2g/
.	2F/	2d\	2A/	2a/
2G\	1G	1d	4G/	2d/
.	.	.	4A/	.
2G\	.	.	4B\	[2g/
.	.	.	4c\	.
=19	=19	=19	=19	=19
1D	1A	1d	2d\	2g/]
.	.	.	2D/	2f/
2G\	2G/	2B\	1r	2g/
2F\	2D/	2A/	.	2a/
=20	=20	=20	=20	=20
1G	1E	4G/	1r	2d/
.	.	4A/	.	.
.	.	4B\	.	1g
.	.	4c\	.	.
1A	1D	2d\	1A	.
.	.	2D/	.	2f#i/
=21	=21	=21	=21	=21
1G	0d	0r	1B	1g
1D	.	.	1A	1r
=22	=22	=22	=22	=22
1E	0r	0r	2G/	0r
.	.	.	2.c\	.
1D	.	.	.	.
.	.	.	4B\	.
.	.	.	4A/	.
.	.	.	4G/	.
=23	=23	=23	=23	=23
2C/	0r	0r	2A/	1r
2BB/	.	.	1G	.
1AA	.	.	.	1a
.	.	.	2F#i/	.
=24	=24	=24	=24	=24
1GG	1r	2r	1G	1b
.	.	2G/	.	.
1r	1d	2E/	1r	1a
.	.	2F/	.	.
=25	=25	=25	=25	=25
0r	1e	4C/	0r	2g/
.	.	4D/	.	.
.	.	4E/	.	2.cc\
.	.	4F/	.	.
.	1d	2G/	.	.
.	.	.	.	4b\
.	.	[2F/	.	4a/
.	.	.	.	4g/
=26	=26	=26	=26	=26
0r	2c\	4F/]	0r	2a/
.	.	4E/	.	.
.	2B\	2G/	.	1g
.	1A	1D	.	.
.	.	.	.	2f#i/
=27	=27	=27	=27	=27
0r	2G/	0r	1G	0g
.	2G/	.	.	.
.	2C/	.	1c	.
.	2E/	.	.	.
=28	=28	=28	=28	=28
1GG	2D/	0r	1d	0r
.	2G/	.	.	.
1C	2C/	.	1c	.
.	2E/	.	.	.
=29	=29	=29	=29	=29
1D	4D/	0r	2r	0r
.	4E/	.	.	.
.	4F/	.	1f	.
.	4G/	.	.	.
1C	4A/	.	.	.
.	4B\	.	.	.
.	[2c\	.	2e\	.
=30	=30	=30	=30	=30
1G	2c\]	0r	1d	1d
.	2B\	.	.	.
2C/	1c	.	2c\	1g
2E\	.	.	2g\	.
=31	=31	=31	=31	=31
1D	1r	1D	2g\	1a
.	.	.	2f\	.
1GG	1G	1G	1g	1g
=32	=32	=32	=32	=32
1r	1c	1A	2e\	2r
.	.	.	2f\	1cc
1G	1d	1G	1g	.
.	.	.	.	2b\
=33	=33	=33	=33	=33
2.A\	1c	2r	2e\	1a
.	.	1c	4c\	.
4G\	.	.	4d\	.
2E\	2r	.	4e\	1g
.	.	.	4f\	.
2G\	[2G/	2B\	[2e\	.
=34	=34	=34	=34	=34
1D	2G/]	1A	2e\]	0r
.	2F/	.	1d	.
1r	1E	1G	.	.
.	.	.	2c#i\	.
=35	=35	=35	=35	=35
1r	2D/	0r	1d	0r
.	2G/	.	.	.
1D	1A	.	1r	.
=36	=36	=36	=36	=36
1E	1G	0r	1e	0r
2.D\	3F/V	.	1f	.
.	3D/	.	.	.
.	3d\Z	.	.	.
4C/	.	.	.	.
=37	=37	=37	=37	=37
2AA/	4c\	1A	1e	0r
.	4d\	.	.	.
2C/	4e\	.	.	.
.	4c\	.	.	.
2GG/	2d\	1B	2d\	.
2G\	2G/	.	2B\	.
=38	=38	=38	=38	=38
4F\	1r	1A	1c	0r
4G\	.	.	.	.
4A\	.	.	.	.
4F\	.	.	.	.
2.G\	4G/	2G/	1B	.
.	4A/	.	.	.
.	4B\	2E/	.	.
4F\	4c\	.	.	.
=39	=39	=39	=39	=39
2D\	2d\	1F	2.A/	0r
2F\	2.c\	.	.	.
.	.	.	4B\	.
1C	.	1E	4c\	.
.	4B\	.	4G/	.
.	2c\	.	2g\	.
=40	=40	=40	=40	=40
1D	1A	1D	4f\	1a
.	.	.	4g\	.
.	.	.	4a\	.
.	.	.	4f\	.
1GG	2G/	1r	2g\	1b
.	2d\	.	2G/	.
=41	=41	=41	=41	=41
2r	2c\	0r	2A/	1a
2D\	2d\	.	2F/	.
2E\	2B\	.	2G/	2g/
2C/	2c\	.	2A/	2e/
=42	=42	=42	=42	=42
1D	2A/	0r	2.F/	1f
.	1d	.	.	.
.	.	.	4G/	.
1AA	.	.	1A	1e
.	2c#i\	.	.	.
=43	=43	=43	=43	=43
0r	1d	0r	1D	1d
.	1G	.	1r	1g
=44	=44	=44	=44	=44
0r	2r	0r	0r	1g
.	1G	.	.	.
.	.	.	.	1d
.	2F/	.	.	.
=45	=45	=45	=45	=45
0r	2E/	0r	0r	1g
.	2C/	.	.	.
.	2.c\	.	.	2g/
.	.	.	.	2e/
.	4B\	.	.	.
=46	=46	=46	=46	=46
1r	4A/	0r	1r	2f/
.	4G/	.	.	.
.	1g	.	.	2g/
1D	.	.	1d	1a
.	2f#i\	.	.	.
=47	=47	=47	=47	=47
1GG	1g	1r	1d	0g
1C	2r	1G	1e	.
.	2c\	.	.	.
=48	=48	=48	=48	=48
2GG/	1B	1G	1d	0r
1G	.	.	.	.
.	1A	1D	2r	.
2F\	.	.	2d\	.
=49	=49	=49	=49	=49
1E	2B\	2G/	2e\	0r
.	2G/	2E/	2c\	.
1D	2A/	4F/	2d\	.
.	.	4G/	.	.
.	2F/	[2A/	2D/	.
=50	=50	=50	=50	=50
1r	1G	2A/]	2G/	0r
.	.	1G	2B\	.
1D	1D	.	1A	.
.	.	2F/	.	.
=51	=51	=51	=51	=51
1E	2r	1G	1G	0r
.	1G	.	.	.
1D	.	1A	1r	.
.	2F/	.	.	.
=52	=52	=52	=52	=52
1GG	1G	1B	0r	0r
1D	2D/	1A	.	.
.	[2F/	.	.	.
=53	=53	=53	=53	=53
1C	2F/]	2.c\	0r	0r
.	2E/	.	.	.
.	.	4B\	.	.
2D\	2F/	4A/	.	.
.	.	4G/	.	.
2GG/	4G/	2B\	.	.
.	4F/	.	.	.
=54	=54	=54	=54	=54
2C/	4E/	2A/	0r	2r
.	4D/	.	.	.
2BB/	1D	1G	.	2g/
1AA	.	.	.	1cc
.	2C/	2F#i/	.	.
=55	=55	=55	=55	=55
1GG	2D/	1G	1G	1b
.	2d\	.	.	.
1r	1e	1r	1c	1cc
=56	=56	=56	=56	=56
1GG	2d\	0r	1B	1dd
.	2B\	.	.	.
1C	1e	.	1c	2r
.	.	.	.	2cc\
=57	=57	=57	=57	=57
0r	2d\	1G	1d	4b\
.	.	.	.	4cc\
.	2B\	.	.	4dd\
.	.	.	.	4b\
.	1e	1c	2.c\	3cc\V
.	.	.	.	3g/
.	.	.	.	3a/Z
.	.	.	4B\	.
=58	=58	=58	=58	=58
0r	1d	1B	2G/	2b\
.	.	.	2B\	1g
.	1r	1c	1A	.
.	.	.	.	2f#i/
=59	=59	=59	=59	=59
1GG	0r	2d\	1G	0g
.	.	2B\	.	.
1C	.	4c\	1r	.
.	.	4d\	.	.
.	.	4e\	.	.
.	.	4c\	.	.
=60	=60	=60	=60	=60
1BB	1D	4d\	0r	0r
.	.	4c\	.	.
.	.	4B\	.	.
.	.	4A/	.	.
1C	1G	2G/	.	.
.	.	[2c\	.	.
=61	=61	=61	=61	=61
1D	1F	2c\]	0r	0r
.	.	2B\	.	.
2.C/	2G/	1c	.	.
.	2A/	.	.	.
4BB/	.	.	.	.
=62	=62	=62	=62	=62
2GG/	2B\	0r	0r	1g
2BB/	1G	.	.	.
1AA	.	.	.	1cc
.	2F#i/	.	.	.
=63	=63	=63	=63	=63
1GG	2G/	0r	1G	1b
.	2d\	.	.	.
1r	1e	.	1c	1cc
=64	=64	=64	=64	=64
1GG	2d\	0r	1B	1dd
.	2B\	.	.	.
1C	1e	.	1c	2r
.	.	.	.	2cc\
=65	=65	=65	=65	=65
0r	2d\	1G	1d	4b\
.	.	.	.	4cc\
.	2B\	.	.	4dd\
.	.	.	.	4b\
.	1e	1c	2.c\	3cc\V
.	.	.	.	3g/
.	.	.	.	3a/Z
.	.	.	4B\	.
=66	=66	=66	=66	=66
0r	1d	1B	2G/	2b\
.	.	.	2B\	1g
.	1r	1c	1A	.
.	.	.	.	2f#i/
=67	=67	=67	=67	=67
1GG	0r	2d\	0G	0g
.	.	2B\	.	.
1C	.	4c\	.	.
.	.	4d\	.	.
.	.	4e\	.	.
.	.	4c\	.	.
=68	=68	=68	=68	=68
1BB	1D	4d\	0r	0r
.	.	4c\	.	.
.	.	4B\	.	.
.	.	4A/	.	.
1C	1G	2G/	.	.
.	.	[2c\	.	.
=69	=69	=69	=69	=69
1D	1F	2c\]	0r	0r
.	.	2B\	.	.
2.C/	2G/	1e	.	.
.	2A/	.	.	.
4BB/	.	.	.	.
=70	=70	=70	=70	=70
2GG/	2B\	2d\	0r	1r
2BB/	1G	2B\	.	.
1AA	.	1c	.	1cc
.	2F#i/	.	.	.
=71	=71	=71	=71	=71
1GG	1G	0r	2r	1b
.	.	.	1g	.
1r	1r	.	.	1a
.	.	.	2f\	.
=72	=72	=72	=72	=72
0r	0r	0r	1e	1g
.	.	.	1d	2f/
.	.	.	.	2d/
=73	=73	=73	=73	=73
0r	0r	0r	2r	1e
.	.	.	1c	.
.	.	.	.	1d
.	.	.	2B\	.
=74	=74	=74	=74	=74
1r	0r	1c	1A	0r
2r	.	1B	1G	.
[2G\	.	.	.	.
=75	=75	=75	=75	=75
2G\]	2r	1A	0r	0r
2F\	1d	.	.	.
1E	.	1G	.	.
.	2c\	.	.	.
=76	=76	=76	=76	=76
1D	1d	2F/	0r	0r
.	.	2D/	.	.
2r	2G/	1E	.	.
[2C/	[2A/	.	.	.
=77	=77	=77	=77	=77
2C/]	2A/]	1D	0r	0r
2BB/	2G/	.	.	.
1AA	4A/	1F	.	.
.	4B\	.	.	.
.	4c\	.	.	.
.	4A/	.	.	.
=78	=78	=78	=78	=78
1GG	1B	2G/	0r	0r
.	.	4D/	.	.
.	.	4E/	.	.
1r	1A	4F/	.	.
.	.	4G/	.	.
.	.	[2A/	.	.
=79	=79	=79	=79	=79
1C	1r	2A/]	0r	0r
.	.	1G	.	.
1D	1A	.	.	.
.	.	2F#i/	.	.
=80	=80	=80	=80	=80
4GG/	1G	2G/	0r	0r
4AA/	.	.	.	.
4BB/	.	4D/	.	.
4C/	.	4E/	.	.
1D	4D/	4F/	.	.
.	4E/	4G/	.	.
.	4F/	[2A/	.	.
.	4G/	.	.	.
=81	=81	=81	=81	=81
2C/	2A/	2A/]	0r	0r
2BB/	2B\	1G	.	.
1AA	1c	.	.	.
.	.	2F#i/	.	.
=82	=82	=82	=82	=82
1GG	2B\	1G	1d	1r
.	2G/	.	.	.
1r	2A/	1D	1d	1f
.	2D/	.	.	.
=83	=83	=83	=83	=83
0r	2E/	1r	4G/	2g/
.	.	.	4A/	.
.	2G/	.	4B\	4d/
.	.	.	4c\	4e/
.	2D/	1d	1d	4f/
.	.	.	.	4g/
.	[2F/	.	.	[2a/
=84	=84	=84	=84	=84
1C	4F/]	1e	2c\	2a/]
.	4E/	.	.	.
.	2G/	.	2B\	1g
1D	1D	1d	1A	.
.	.	.	.	2f#i/
=85	=85	=85	=85	=85
4GG/	2r	2B\	1G	2g/
4AA/	.	.	.	.
4BB/	1G	2.d\	.	4d/
4C/	.	.	.	4e/
1D	.	.	2r	4f/
.	.	4c\	.	4g/
.	2F/	2A/	2D/	[2a/
=86	=86	=86	=86	=86
2C/	1G	2c\	4E/	4a/]
.	.	.	4F/	4g/
2E\	.	2B\	4G/	1g
.	.	.	4E/	.
1D	1A	1d	2F/	.
.	.	.	2D/	2f#i/
=87	=87	=87	=87	=87
[0GGl	[0Gl	[0Bl	1E	[0gl
.	.	.	1D	.
=88	=88	=88	=88	=88
0GG]	0G]	0B]	0dl	0g]
!!LO:LB:i:g=z
=89||	=89||	=89||	=89||	=89||
!!section: Secunda pars: Ave solem
!!!OMD: Secunda pars: Ave solem
*k[]	*k[]	*k[]	*k[]	*k[]
*M2/1	*M2/1	*M2/1	*M2/1	*M2/1
*met(C|)	*met(C|)	*met(C|)	*met(C|)	*met(C|)
0r	0r	0r	1c	0r
.	.	.	1f	.
=90	=90	=90	=90	=90
0r	1C	0r	1e	0r
.	1F	.	1f	.
=91	=91	=91	=91	=91
0r	1E	0r	1g	1g
.	1F	.	2c\	1cc
.	.	.	2f\	.
=92	=92	=92	=92	=92
0r	1G	0r	2d\	1b
.	.	.	2.e\	.
.	2E/	.	.	1cc
.	.	.	4d\	.
.	2F/	.	[2c\	.
=93	=93	=93	=93	=93
0r	1D	0r	2c\]	1dd
.	.	.	2B\	.
.	1C	.	2.e\	2g/
.	.	.	.	4cc\
.	.	.	4d\	4b\
=94	=94	=94	=94	=94
0r	0r	0r	2c\	4a/
.	.	.	.	4g/
.	.	.	2B\	1g
.	.	.	1A	.
.	.	.	.	2f#i/
=95	=95	=95	=95	=95
0r	0r	0r	1G	2g/
.	.	.	.	2dd\
.	.	.	1r	2b\
.	.	.	.	[2cc\
=96	=96	=96	=96	=96
0r	0r	0r	1c	4cc\]
.	.	.	.	4b\
.	.	.	.	2g/
.	.	.	1f	1a
=97	=97	=97	=97	=97
0r	1C	0r	1e	1g
.	1F	.	1f	1r
=98	=98	=98	=98	=98
0r	1E	0r	1g	1g
.	1F	.	2c\	1cc
.	.	.	2f\	.
=99	=99	=99	=99	=99
0r	1G	0r	2d\	1b
.	.	.	2.e\	.
.	2E/	.	.	1cc
.	.	.	4d\	.
.	2F/	.	[2c\	.
=100	=100	=100	=100	=100
0r	1D	0r	2c\]	1dd
.	.	.	2B\	.
.	1C	.	4c\	2g/
.	.	.	4d\	.
.	.	.	4e\	2cc\
.	.	.	4f\	.
=101	=101	=101	=101	=101
0r	0r	0r	2g\	2b\
.	.	.	4c\	2.cc\
.	.	.	4d\	.
.	.	.	4e\	.
.	.	.	4f\	4b\
.	.	.	[2g\	2g/
=102	=102	=102	=102	=102
0r	1r	0r	2g\]	1a
.	.	.	2f\	.
.	1c	.	[1g	1g
=103	=103	=103	=103	=103
0r	1B	0r	1g]	1r
.	1A	.	1r	1cc
=104	=104	=104	=104	=104
0r	4G/	0r	0r	1b
.	4A/	.	.	.
.	4B\	.	.	.
.	4c\	.	.	.
.	2d\	.	.	1a
.	[2c\	.	.	.
=105	=105	=105	=105	=105
0r	4c\]	0r	0r	2g/
.	4B\	.	.	.
.	2G/	.	.	2dd\
.	1A	.	.	2cc\
.	.	.	.	2a/
=106	=106	=106	=106	=106
0r	4G/	0r	1G	1b
.	4A/	.	.	.
.	4B\	.	.	.
.	4c\	.	.	.
.	2d\	.	1F	1a
.	[2c\	.	.	.
=107	=107	=107	=107	=107
0r	4c\]	0r	1E	2r
.	4B\	.	.	.
.	2G/	.	.	1g
.	1A	.	1D	.
.	.	.	.	2f#i/
=108	=108	=108	=108	=108
0r	1G	0r	4G/	1g
.	.	.	4A/	.
.	.	.	4B\	.
.	.	.	4c\	.
.	1r	.	2d\	1d
.	.	.	4G/	.
.	.	.	4A/	.
=109	=109	=109	=109	=109
0r	1G	0r	4B\	1d
.	.	.	4c\	.
.	.	.	4d\	.
.	.	.	4e\	.
.	1F	.	2f\	1d
.	.	.	2d\	.
=110	=110	=110	=110	=110
0r	1E	0r	1g	0r
.	4D/	.	1f	.
.	4E/	.	.	.
.	4F/	.	.	.
.	4G/	.	.	.
=111	=111	=111	=111	=111
0r	2A/	0r	1e	0r
.	2.G/	.	.	.
.	.	.	1d	.
.	4F/	.	.	.
.	2D/	.	.	.
=112	=112	=112	=112	=112
0r	1E	0r	1g	0r
.	4D/	.	2.f\	.
.	4E/	.	.	.
.	4F/	.	.	.
.	4G/	.	4e\	.
=113	=113	=113	=113	=113
0r	2A/	0r	4c\	0r
.	.	.	4d\	.
.	2.G/	.	4e\	.
.	.	.	4f\	.
.	.	.	4e\	.
.	4F/	.	4d\	.
.	2D/	.	[2d\	.
=114	=114	=114	=114	=114
0r	1E	0r	2d\]	0r
.	.	.	2c#i\	.
.	[1D	.	1d	.
=115	=115	=115	=115	=115
0r	1D]	0r	1r	0r
.	1r	.	1d	.
=116	=116	=116	=116	=116
0r	2D/	0r	2f\	0r
.	2F/	.	2d\	.
.	4D/	.	2f\	.
.	4E/	.	.	.
.	4F/	.	4d\	.
.	4G/	.	4e\	.
=117	=117	=117	=117	=117
0r	2A/	0r	4f\	0r
.	.	.	4g\	.
.	2D/	.	1a	.
.	2F/	.	.	.
.	2G/	.	[2g\	.
=118	=118	=118	=118	=118
0r	1A	0r	2g\]	1r
.	.	.	2f#i\	.
.	1G	.	1g	1d
=119	=119	=119	=119	=119
0r	1r	0r	2d\	2f/
.	.	.	2f\	2d/
.	[1D	.	4d\	2f/
.	.	.	4e\	.
.	.	.	4f\	4d/
.	.	.	4g\	4e/
=120	=120	=120	=120	=120
0r	2D/]	0r	2a\	4f/
.	.	.	.	4g/
.	2D/	.	2d\	1a
.	2E/	.	2B\	.
.	2C/	.	2c\	[2g/
=121	=121	=121	=121	=121
0r	1D	0r	1A	2g/]
.	.	.	.	2f#i/
.	1r	.	4G/	2g/
.	.	.	4A/	.
.	.	.	4B\	4d/
.	.	.	4c\	4e/
=122	=122	=122	=122	=122
0r	4D/	0r	2d\	4f/
.	4E/	.	.	4g/
.	4F/	.	2D/	2a/
.	4G/	.	.	.
.	2A/	.	2r	4f/
.	.	.	.	4g/
.	4F/	.	2d\	4a/
.	4G/	.	.	4b\
=123	=123	=123	=123	=123
0r	4A/	0r	4c\	2cc\
.	4B\	.	4d\	.
.	2c\	.	4e\	4g/
.	.	.	4f\	4a/
.	4G/	.	2g\	4b\
.	4A/	.	.	4cc\
.	4B\	.	2G/	2dd\
.	4c\	.	.	.
=124	=124	=124	=124	=124
0r	2d\	0r	2r	2a/
.	2A/	.	4A/	4cc\
.	.	.	4G/	4b\
.	2.d\	.	4F/	4a/
.	.	.	4E/	4g/
.	.	.	2D/	4f/
.	4c\	.	.	4e/
=125	=125	=125	=125	=125
0r	4B\	0r	4d\	2d/
.	4A/	.	4c\	.
.	2.G/	.	4B\	4dd\
.	.	.	4A/	4cc\
.	.	.	2G/	4b\
.	4F/	.	.	4a/
.	2G/	.	2B\	[2g/
=126	=126	=126	=126	=126
0r	1D	0r	1A	2g/]
.	.	.	.	2f#i/
.	1Gl	.	1Gl	1gl
!!LO:LB:i:g=z
=127||	=127||	=127||	=127||	=127||
!!section: Tertia pars: Ave mater
!!!OMD: Tertia pars: Ave mater
*k[]	*k[]	*k[]	*k[]	*k[]
*M2/1	*M2/1	*M2/1	*M2/1	*M2/1
*met(C|)	*met(C|)	*met(C|)	*met(C|)	*met(C|)
0r	1G	0r	1r	1g
.	1A	.	1c	1e
=128	=128	=128	=128	=128
0r	1F	0r	1A	1f
.	1G	.	1B	1d
=129	=129	=129	=129	=129
0r	1E	0r	1G	2r
.	.	.	.	2g/
.	2D/	.	2r	2f/
.	[2E/	.	[2c\	[2g/
=130	=130	=130	=130	=130
0r	4E/]	0r	2c\]	4g/]
.	4F/	.	.	4a/
.	2G/	.	2B\	4b\
.	.	.	.	4g/
.	1C	.	1c	4a/
.	.	.	.	4g/
.	.	.	.	[2cc\
=131	=131	=131	=131	=131
1r	0r	1G	1d	2cc\]
.	.	.	.	2b\
1C	.	1E	1c	[1cc
=132	=132	=132	=132	=132
1AA	1c	1F	0r	1cc]
1BB	1d	1D	.	1r
=133	=133	=133	=133	=133
1GG	1B	2r	0r	0r
.	.	1G	.	.
2r	1A	.	.	.
2D\	.	2F/	.	.
=134	=134	=134	=134	=134
2E\	0r	1G	0r	0r
1G	.	.	.	.
.	.	1A	.	.
2F#i\	.	.	.	.
=135	=135	=135	=135	=135
1G	1G	1G	1r	1g
1r	1A	1r	1c	1e
=136	=136	=136	=136	=136
0r	1F	0r	1A	1f
.	1G	.	1B	1d
=137	=137	=137	=137	=137
0r	1E	0r	1G	2r
.	.	.	.	2g/
.	2D/	.	2r	2f/
.	[2E/	.	[2c\	[2g/
=138	=138	=138	=138	=138
0r	4E/]	0r	2c\]	4g/]
.	4F/	.	.	4a/
.	2G/	.	2B\	4b\
.	.	.	.	4g/
.	1C	.	1c	4a/
.	.	.	.	4g/
.	.	.	.	[2cc\
=139	=139	=139	=139	=139
1r	0r	1G	1d	2cc\]
.	.	.	.	2b\
1C	.	1E	1c	[1cc
=140	=140	=140	=140	=140
1AA	1c	1F	0r	1cc]
1BB	1d	1D	.	1r
=141	=141	=141	=141	=141
1GG	1B	2r	0r	0r
.	.	1G	.	.
2r	1A	.	.	.
2D\	.	2F/	.	.
=142	=142	=142	=142	=142
2E\	0r	1G	0r	1r
1G	.	.	.	.
.	.	1A	.	1cc
2F\	.	.	.	.
=143	=143	=143	=143	=143
1G	1r	1G	1g	2b\
.	.	.	.	2g/
1D	1f	1r	2f\	1a
.	.	.	2d\	.
=144	=144	=144	=144	=144
2r	2e\	1c	1e	2.g/
2C/	2c\	.	.	.
.	.	.	.	4a/
2GG/	1d	2B\	2d\	4b\
.	.	.	.	4cc\
2BB/	.	2G/	2B\	2b\
=145	=145	=145	=145	=145
2AA/	2c\	1A	1c	2.e/
2C/	2A/	.	.	.
.	.	.	.	4f/
1GG	2B\	2G/	1B	4g/
.	.	.	.	4a/
.	2G/	2E/	.	2g/
=146	=146	=146	=146	=146
1D	4A/	1F	0A	2f/
.	4D/	.	.	.
.	1d	.	.	2d/
1AA	.	1E	.	1e
.	2c#i\	.	.	.
=147	=147	=147	=147	=147
0r	1d	1D	1r	2.f/
.	.	.	.	4d/
.	1r	1r	1d	2d/
.	.	.	.	2dd\
=148	=148	=148	=148	=148
0r	0r	0r	1e	2b\
.	.	.	.	2.cc\
.	.	.	1c	.
.	.	.	.	4b\
.	.	.	.	4a/
.	.	.	.	4g/
=149	=149	=149	=149	=149
0r	0r	0r	1d	2b\
.	.	.	.	1a
.	.	.	2B\	.
.	.	.	2c\	[2g/
=150	=150	=150	=150	=150
1D	1r	1d	1A	2g/]
.	.	.	.	2f#i/
1E	1G	2B\	1G	1g
.	.	[2c\	.	.
=151	=151	=151	=151	=151
1C	1E	4c\]	0r	0r
.	.	4B\	.	.
.	.	4A/	.	.
.	.	4G/	.	.
1D	1F	2B\	.	.
.	.	[2A/	.	.
=152	=152	=152	=152	=152
2BB/	2D/	2A/]	0r	0r
2C/	2E/	1G	.	.
1AA	1C	.	.	.
.	.	2F#i/	.	.
=153	=153	=153	=153	=153
*M3/1	*M3/1	*M3/1	*M3/1	*M3/1
*met(3)	*met(3)	*met(3)	*met(3)	*met(3)
0GG	0D	0G	1r	1dd
.	.	.	1g	1b
1r	1r	1r	1e	1cc
=154	=154	=154	=154	=154
0.r	0.r	0.r	1f	0a
.	.	.	1d	.
.	.	.	1e	1cc
=155	=155	=155	=155	=155
0.r	0.r	1r	1g	1b
.	.	1r	1.f#i	0a
.	.	1d	.	.
.	.	.	2e\	.
=156	=156	=156	=156	=156
1GG	1G	1B	1g	0g
1C	1E	1.c	1r	.
1AA	[1F	.	1r	1r
.	.	2A/	.	.
=157	=157	=157	=157	=157
1.D	1F]	0A	0.r	0.r
.	1D	.	.	.
2C/	.	.	.	.
1AA	1E	1c	.	.
=158	=158	=158	=158	=158
1GG	1G	0B	0.r	0.r
0D	1.F#i	.	.	.
.	.	1A	.	.
.	2E/	.	.	.
=159	=159	=159	=159	=159
0GG	0G	0G	1r	1dd
.	.	.	1g	1b
1r	1r	1r	1e	1cc
=160	=160	=160	=160	=160
0.r	0.r	0.r	1f	0a
.	.	.	1d	.
.	.	.	1e	1cc
=161	=161	=161	=161	=161
0.r	0.r	1r	1g	1b
.	.	1r	1.f#i	0a
.	.	1d	.	.
.	.	.	2e\	.
=162	=162	=162	=162	=162
1GG	1G	1B	1g	0g
1C	1E	1.c	1r	.
1AA	[1F	.	1r	1r
.	.	2A/	.	.
=163	=163	=163	=163	=163
1.D	2F/]	0A	0.r	0.r
.	2D/	.	.	.
.	1D	.	.	.
2C/	.	.	.	.
1AA	1E	1c	.	.
=164	=164	=164	=164	=164
1GG	1G	1B	0.r	0.r
0D	1.F#i	0A	.	.
.	2E/	.	.	.
=165	=165	=165	=165	=165
0GG	1G	0G	0.r	0.r
.	1D	.	.	.
1C	1E	1r	.	.
=166	=166	=166	=166	=166
1BB	1.G	1r	0.r	0.r
1GG	.	1r	.	.
.	4F#i/	.	.	.
.	4E/	.	.	.
1AA	1F#i	1c	.	.
=167	=167	=167	=167	=167
1GG	0G	1B	1d	1r
1r	.	1G	1e	1r
1r	1r	1A	1f	1cc
=168	=168	=168	=168	=168
0.r	1r	0G	1g	1b
.	1r	.	1e	1g
.	1c	1F	1f	1a
=169	=169	=169	=169	=169
1r	1B	1G	1e	0g
1r	1G	1E	1c	.
1D	1A	1D	1d	1f
=170	=170	=170	=170	=170
1E	0G	0.r	1B	1g
1C	.	.	1c	1e
1D	1F	.	1A	1f
=171	=171	=171	=171	=171
1BB-	1G	0.r	1B-	1d
1C	1E	.	1A	1r
1D	1D	.	1F	1a
=172	=172	=172	=172	=172
1GG	0.r	1r	1G	1b
1r	.	1A	1D	1a
1r	.	1B	1r	1d
=173	=173	=173	=173	=173
1AA	0.r	1A	1e	0.r
1D	.	1F	1f	.
1C	.	1G	1e	.
=174	=174	=174	=174	=174
1AA	0.r	1A	1c	0.r
1BB	.	1G	1d	.
1C	.	1r	1e	.
=175	=175	=175	=175	=175
0GG	0.r	0.r	0d	0.r
1r	.	.	1r	.
=176	=176	=176	=176	=176
1D	1F	1A	1f	1a
1BB-	1G	1B-i	1d	1dd
1C	1E	1A	1e	1cc
=177	=177	=177	=177	=177
1D	1D	1F	1f	1a
1GG	1BB	1G	1d	1b
1C	1E	1A	1c	1cc
=178	=178	=178	=178	=178
*M2/1	*M2/1	*M2/1	*M2/1	*M2/1
*met(C|)	*met(C|)	*met(C|)	*met(C|)	*met(C|)
1GG	[0D;l	1G	[0dl;	2.b\
.	.	.	.	4cc\
1GG	.	1B-	.	2dd\
.	.	.	.	4d/
.	.	.	.	4e/
=179	=179	=179	=179	=179
1D	0D_	2A/	0d_	4f/
.	.	.	.	4g/
.	.	2F/	.	1a
2r	.	1B-i	.	.
2GG/	.	.	.	4d/
.	.	.	.	4e/
=180	=180	=180	=180	=180
1D	0D_	2A/	0d_	4f/
.	.	.	.	4g/
.	.	2F/	.	2.a/
1GG	.	1B-i	.	.
.	.	.	.	4g/
.	.	.	.	[2g/
=181	=181	=181	=181	=181
0D;	0D;]	0A;	0d]	2g/]
.	.	.	.	4f#i/
.	.	.	.	4e/
.	.	.	.	1f#i
=182	=182	=182	=182	=182
0GG	1D	[0Gl	2.B\	[0g;l
.	.	.	4c\	.
.	2.BB/	.	2d\	.
.	.	.	4G/	.
.	4C/	.	4A/	.
=183	=183	=183	=183	=183
1GG	2D/	0G_	4B\	0g_
.	.	.	4c\	.
.	2BB/	.	1d	.
1r	1E	.	.	.
.	.	.	4G/	.
.	.	.	4A/	.
=184	=184	=184	=184	=184
1GG	2D/	0G_	4B\	0g_
.	.	.	4c\	.
.	2BB/	.	2.d\	.
1C	1E	.	.	.
.	.	.	4c\	.
.	.	.	[2c\	.
=185	=185	=185	=185	=185
0GGl	0Dl	0G]	2c\]	0g]
.	.	.	4B\	.
.	.	.	4A/	.
.	.	.	1Bl	.
==	==	==	==	==
*-	*-	*-	*-	*-
!!!RDF**kern: l=long note in original notation
!!!RDF**kern: i=editorial accidental
!!!RDF**kern: V=start of tuplet marker
!!!RDF**kern: Z=end of tuplet marker
!!!ENC:	Joel Chapman 2012/05/1
!!!END:	2012/05/01/
!!!EED:	Jesse Rodin
!!!EEV:	2012/06/07/
!!attribution-level@Jos: 4 (questionable)
!!!ONB:	Translated from MusicXML and edited on 2012/05/25/ by Craig Sapp
!!muse2ps: C^@{COA}?\n@{SCT}^i2I150v85,85,85,85,130Q16
